src/public/images/main-story-background.svg

<svg width="610" height="240" viewBox="0 0 610 240" fill="none" xmlns="http://www.w3.org/2000/svg">
<path opacity="0.8" d="M386.994 251.207C368.941 230.593 360.351 197.258 361.123 159.928C361.896 122.602 372.032 81.3537 391.371 45.0536C410.71 8.75354 435.568 -15.685 460.108 -25.8713C484.65 -36.0589 508.826 -31.9789 526.879 -11.3649C544.931 9.2491 553.522 42.5844 552.749 79.9143C551.977 117.24 541.84 158.489 522.501 194.789C503.163 231.089 478.304 255.527 453.765 265.714C429.223 275.901 405.047 271.821 386.994 251.207Z" stroke="#575775"/>
<path opacity="0.8" d="M401.576 248.559C386.453 231.29 380.288 201.338 382.665 166.713C385.04 132.105 395.946 92.9542 414.839 57.4896C433.733 22.025 457.014 -2.99505 479.363 -14.7954C501.723 -26.6016 523.067 -25.142 538.19 -7.87323C553.313 9.39559 559.478 39.3475 557.102 73.973C554.727 108.581 543.821 147.732 524.927 183.196C506.033 218.661 482.752 243.681 460.403 255.481C438.043 267.288 416.699 265.828 401.576 248.559Z" stroke="#575775"/>
<path opacity="0.8" d="M423.073 256.913C407.943 239.637 401.484 210.24 403.374 176.536C405.264 142.845 415.497 104.96 433.646 70.8927C451.796 36.8254 474.402 13.0689 496.261 2.18127C518.13 -8.71062 539.177 -6.69744 554.307 10.5789C569.437 27.8553 575.896 57.2522 574.006 90.9563C572.116 124.647 561.883 162.532 543.734 196.6C525.585 230.667 502.978 254.423 481.119 265.311C459.251 276.203 438.203 274.19 423.073 256.913Z" stroke="#575775"/>
<path opacity="0.8" d="M219.145 -62.9869C225.127 -34.922 206.457 -4.22469 171.077 22.7298C135.73 49.6582 83.8498 72.7263 23.8139 85.5234C-36.2221 98.3205 -92.9992 98.4136 -136.255 88.2398C-179.552 78.0562 -209.117 57.6406 -215.099 29.5757C-221.081 1.51078 -202.412 -29.1865 -167.031 -56.141C-131.684 -83.0695 -79.8039 -106.137 -19.768 -118.935C40.268 -131.732 97.0451 -131.825 140.301 -121.651C183.598 -111.467 213.163 -91.0518 219.145 -62.9869Z" stroke="#575775"/>
<path opacity="0.8" d="M196.601 -71.5271C199.105 -59.7842 195.641 -47.301 187.136 -34.7532C178.629 -22.2038 165.103 -9.62845 147.569 2.25956C112.501 26.034 61.4896 47.0008 2.84539 59.5012C-55.7988 72.0017 -110.926 73.6594 -152.64 66.2514C-173.499 62.5472 -190.977 56.5808 -203.862 48.591C-216.745 40.6023 -224.997 30.6164 -227.5 18.8735C-230.004 7.13058 -226.54 -5.35265 -218.035 -17.9005C-209.529 -30.4499 -196.002 -43.0252 -178.468 -54.9132C-143.4 -78.6877 -92.3887 -99.6544 -33.7445 -112.155C24.8998 -124.655 80.0274 -126.313 121.741 -118.905C142.6 -115.201 160.078 -109.234 172.963 -101.245C185.846 -93.2559 194.098 -83.2701 196.601 -71.5271Z" stroke="#575775"/>
<path opacity="0.8" d="M174.609 -93.131C177.113 -81.3809 173.877 -68.944 165.793 -56.4884C157.708 -44.0304 144.792 -31.5868 128.013 -19.861C94.4566 3.58931 45.5323 24.1104 -10.8065 36.1195C-67.1453 48.1285 -120.185 49.3419 -160.387 41.6138C-180.49 37.7495 -197.357 31.6544 -209.82 23.5764C-222.28 15.5 -230.307 5.46393 -232.812 -6.28619C-235.316 -18.0363 -232.08 -30.4731 -223.996 -42.9288C-215.911 -55.3868 -202.995 -67.8304 -186.216 -79.5562C-152.66 -103.006 -103.735 -123.528 -47.3964 -135.537C8.94245 -147.546 61.9824 -148.759 102.185 -141.031C122.287 -137.167 139.154 -131.072 151.617 -122.994C164.077 -114.917 172.104 -104.881 174.609 -93.131Z" stroke="#575775"/>
</svg>

<svg xmlns="http://www.w3.org/2000/svg" width="610" height="240" fill="none"><path stroke="#575775" d="M386.994 251.207c-18.053-20.614-26.643-53.949-25.871-91.279.773-37.326 10.909-78.574 30.248-114.874s44.197-60.739 68.737-70.925c24.542-10.188 48.718-6.108 66.771 14.506 18.052 20.614 26.643 53.95 25.87 91.28-.772 37.325-10.909 78.574-30.248 114.874-19.338 36.3-44.197 60.738-68.736 70.925-24.542 10.187-48.718 6.107-66.771-14.507Z" opacity=".8"/><path stroke="#575775" d="M401.576 248.559c-15.123-17.269-21.288-47.221-18.911-81.846 2.375-34.608 13.281-73.759 32.174-109.223 18.894-35.465 42.175-60.485 64.524-72.285 22.36-11.807 43.704-10.347 58.827 6.922 15.123 17.269 21.288 47.22 18.912 81.846-2.375 34.608-13.281 73.759-32.175 109.223-18.894 35.465-42.175 60.485-64.524 72.285-22.36 11.807-43.704 10.347-58.827-6.922Z" opacity=".8"/><path stroke="#575775" d="M423.073 256.913c-15.13-17.276-21.589-46.673-19.699-80.377 1.89-33.691 12.123-71.576 30.272-105.643 18.15-34.068 40.756-57.824 62.615-68.712 21.869-10.892 42.916-8.878 58.046 8.398 15.13 17.276 21.589 46.673 19.699 80.377-1.89 33.691-12.123 71.576-30.272 105.644-18.149 34.067-40.756 57.823-62.615 68.711-21.868 10.892-42.916 8.879-58.046-8.398ZM219.145-62.987c5.982 28.065-12.688 58.762-48.068 85.717C135.73 49.658 83.85 72.726 23.814 85.523-36.222 98.32-93 98.413-136.255 88.24c-43.297-10.184-72.862-30.6-78.844-58.664-5.982-28.065 12.687-58.762 48.068-85.717 35.347-26.929 87.227-49.996 147.263-62.794 60.036-12.797 116.813-12.89 160.069-2.716 43.297 10.184 72.862 30.6 78.844 58.664Z" opacity=".8"/><path stroke="#575775" d="M196.601-71.527c2.504 11.743-.96 24.226-9.465 36.774-8.507 12.55-22.033 25.125-39.567 37.013C112.501 26.034 61.489 47 2.845 59.5c-58.644 12.5-113.771 14.158-155.485 6.75-20.859-3.704-38.337-9.67-51.222-17.66-12.883-7.989-21.135-17.975-23.638-29.718-2.504-11.742.96-24.226 9.465-36.773 8.506-12.55 22.033-25.125 39.567-37.013 35.068-23.775 86.08-44.741 144.724-57.242 58.644-12.5 113.771-14.158 155.485-6.75 20.859 3.704 38.337 9.671 51.222 17.66 12.883 7.99 21.135 17.975 23.638 29.718Z" opacity=".8"/><path stroke="#575775" d="M174.609-93.131c2.504 11.75-.732 24.187-8.816 36.643-8.085 12.458-21.001 24.901-37.78 36.627-33.556 23.45-82.48 43.971-138.82 55.98-56.338 12.01-109.378 13.223-149.58 5.495-20.103-3.864-36.97-9.96-49.433-18.038-12.46-8.076-20.487-18.112-22.992-29.862-2.504-11.75.732-24.187 8.816-36.643 8.085-12.458 21.001-24.901 37.78-36.627 33.556-23.45 82.481-43.972 138.82-55.981 56.338-12.009 109.378-13.222 149.581-5.494 20.102 3.864 36.969 9.959 49.432 18.037 12.46 8.077 20.487 18.113 22.992 29.863Z" opacity=".8"/></svg>
